public/images/icon-arrow-right.svg

<?xml version="1.0" encoding="UTF-8" standalone="no"?>
<svg
   xmlns:dc="http://purl.org/dc/elements/1.1/"
   xmlns:cc="http://creativecommons.org/ns#"
   xmlns:rdf="http://www.w3.org/1999/02/22-rdf-syntax-ns#"
   xmlns:svg="http://www.w3.org/2000/svg"
   xmlns="http://www.w3.org/2000/svg"
   xmlns:sodipodi="http://sodipodi.sourceforge.net/DTD/sodipodi-0.dtd"
   xmlns:inkscape="http://www.inkscape.org/namespaces/inkscape"
   version="1.1"
   id="Layer_1"
   x="0px"
   y="0px"
   width="100"
   height="100"
   viewBox="3.57205 -7.1309 99.999997 135"
   enable-background="new 0 0 71.441 71.309"
   xml:space="preserve"
   inkscape:version="0.91 r13725"
   sodipodi:docname="icon-arrow-right.svg"><metadata
     id="metadata3783"><rdf:RDF><cc:Work
         rdf:about=""><dc:format>image/svg+xml</dc:format><dc:type
           rdf:resource="http://purl.org/dc/dcmitype/StillImage" /><dc:title></dc:title></cc:Work></rdf:RDF></metadata><defs
     id="defs3781" /><sodipodi:namedview
     pagecolor="#ffffff"
     bordercolor="#666666"
     borderopacity="1"
     objecttolerance="10"
     gridtolerance="10"
     guidetolerance="10"
     inkscape:pageopacity="0"
     inkscape:pageshadow="2"
     inkscape:window-width="938"
     inkscape:window-height="755"
     id="namedview3779"
     showgrid="false"
     inkscape:zoom="3.3095403"
     inkscape:cx="35.720501"
     inkscape:cy="35.654499"
     inkscape:window-x="0"
     inkscape:window-y="0"
     inkscape:window-maximized="0"
     inkscape:current-layer="Layer_1" /><g
     id="g3775"
     transform="matrix(1.8896811,0,0,1.8896811,-13.928652,-6.882165)"><path
       d="M 35.96,0 C 19.61,0 5.816,11.15 1.715,26.311 c -0.084,0.423 0.169,0.875 0.59,0.988 0.393,0.084 0.843,-0.17 0.955,-0.594 3.905,-14.453 17.053,-25.096 32.7,-25.096 18.738,0 33.908,15.216 33.908,34.045 0,18.829 -15.17,34.074 -33.908,34.074 C 20.313,69.728 7.165,59.057 3.26,44.576 3.148,44.152 2.698,43.898 2.277,44.012 1.884,44.124 1.631,44.576 1.715,44.999 5.816,60.158 19.61,71.309 35.96,71.309 55.541,71.309 71.441,55.33 71.441,35.655 71.441,15.98 55.541,0 35.96,0 l 0,0 z m 6.068,20.552 c -0.562,0.084 -0.814,0.959 -0.393,1.354 l 12.585,12.958 -53.348,0 c -0.056,0 -0.112,0 -0.168,0 -0.393,0.028 -0.73,0.451 -0.702,0.875 0.056,0.424 0.478,0.762 0.871,0.706 l 53.347,0 -12.585,12.957 c -0.338,0.282 -0.365,0.875 -0.057,1.186 0.308,0.311 0.899,0.282 1.18,-0.057 L 56.693,36.19 c 0.253,-0.282 0.253,-0.79 0,-1.072 L 42.758,20.806 c -0.168,-0.198 -0.421,-0.282 -0.646,-0.254 -0.028,0 -0.056,0 -0.084,0 l 0,0 z"
       id="path3777"
       inkscape:connector-curvature="0" /></g></svg>

<svg xmlns="http://www.w3.org/2000/svg" xmlns:xlink="http://www.w3.org/1999/xlink" version="1.1" id="Layer_1" x="0px" y="0px" width="71.441px" height="71.309px" viewBox="3.57205 -7.1309 71.441 96.26715" enable-background="new 0 0 71.441 71.309" xml:space="preserve">
<g>
	<path d="M35.96,0C19.61,0,5.816,11.15,1.715,26.311c-0.084,0.423,0.169,0.875,0.59,0.988c0.393,0.084,0.843-0.17,0.955-0.594   C7.165,12.252,20.313,1.609,35.96,1.609c18.738,0,33.908,15.216,33.908,34.045S54.698,69.728,35.96,69.728   c-15.647,0-28.795-10.671-32.7-25.152c-0.112-0.424-0.562-0.678-0.983-0.564c-0.393,0.112-0.646,0.564-0.562,0.987   C5.816,60.158,19.61,71.309,35.96,71.309c19.581,0,35.481-15.979,35.481-35.654S55.541,0,35.96,0L35.96,0z M42.028,20.552   c-0.562,0.084-0.814,0.959-0.393,1.354L54.22,34.864H0.872c-0.056,0-0.112,0-0.168,0c-0.393,0.028-0.73,0.451-0.702,0.875   c0.056,0.424,0.478,0.762,0.871,0.706H54.22L41.635,49.402c-0.338,0.282-0.365,0.875-0.057,1.186s0.899,0.282,1.18-0.057   L56.693,36.19c0.253-0.282,0.253-0.79,0-1.072L42.758,20.806c-0.168-0.198-0.421-0.282-0.646-0.254   C42.084,20.552,42.056,20.552,42.028,20.552L42.028,20.552z"/>
</g>
</svg>
